!!!OTL: I HAB EIN ARTIGES BLUEMELI GSEH
!!!ARE: Europa, Mitteleuropa, Schweiz
!!!SCT: Z0270
!!!YEM: Copyright 1995, estate of Helmut Schaffrath.
**kern
*ICvox
*Ivox
*M4/4
*k[b-e-a-d-]
*A-:
{8ee-
8cc
=1
4a-
4a-
4a-
8ff
8ee-
=2
4ee-
8ee-
8cc
4dd-
8r}
{8dd-
=3
8cc
8ee-
8ee-
8ee-
8ff
8ee-
8dd-
8cc
=4
2b-
4r}
{8b-
8cc
=5
4dd-
8dd-
8cc
4b-
8ff
8ee-
=6
4ee-
8ee-
8dd-
4cc}
{4ee-
=7
4ff
4ee-
4dd-
4cc
=8
8b-
8a-
8g
8a-
4b-}
{8ee-
8dd-
=9
4cc
8cc
8cc
4cc
8ee-
8cc
=10
4b-
8b-
8b-
4b-}
{8ee-
8dd-
=11
4cc
4cc
4b-
4b-
=12
2.cc}
{8ee-
8dd-
=13
4cc
8cc
8cc
4cc
8ee-
8dd-
=14
4b-
8b-
8b-
4b-}
{8ee-
8dd-
=15
4cc
4cc
4b-
4b-
=16
2.a-}
==
!!!AGN: Lyrisches Lied, Romanze, Tod
!!!ONB: ESAC (Essen Associative Code) Database: ZUCCAL
!!!AMT: simple quadruple
!!!AIN: vox
!!!EED: Helmut Schaffrath
!!!EEV: 1.0
*-
